public/icon/Z_ALL/Lucky.svg

<?xml version="1.0" encoding="UTF-8"?>
<svg width="1025px" height="1024px" viewBox="0 0 1025 1024" version="1.1" xmlns="http://www.w3.org/2000/svg" xmlns:xlink="http://www.w3.org/1999/xlink">
    <title>Lucky</title>
    <defs>
        <linearGradient x1="107.949061%" y1="76.9736654%" x2="-12.539212%" y2="31.0504405%" id="linearGradient-1">
            <stop stop-color="#F932AF" offset="0%"></stop>
            <stop stop-color="#FA5991" offset="0%"></stop>
            <stop stop-color="#FA5A8F" offset="45.7630853%"></stop>
            <stop stop-color="#FE8241" offset="100%"></stop>
            <stop stop-color="#FE8241" offset="100%"></stop>
        </linearGradient>
        <linearGradient x1="18.9458832%" y1="-4.61953461%" x2="86.6991106%" y2="185.426604%" id="linearGradient-2">
            <stop stop-color="#085EA5" offset="0%"></stop>
            <stop stop-color="#1669AB" offset="19.0066871%"></stop>
            <stop stop-color="#A5E7E5" offset="48.8850539%"></stop>
            <stop stop-color="#A5E7E5" offset="100%"></stop>
        </linearGradient>
        <linearGradient x1="16.9652549%" y1="-4.61953461%" x2="89.0397759%" y2="185.426604%" id="linearGradient-3">
            <stop stop-color="#085EA5" offset="0%"></stop>
            <stop stop-color="#1669AB" offset="19.0066871%"></stop>
            <stop stop-color="#A5E7E5" offset="48.8850539%"></stop>
            <stop stop-color="#A5E7E5" offset="100%"></stop>
        </linearGradient>
    </defs>
    <g id="ICON-新版方图标" stroke="none" stroke-width="1" fill="none" fill-rule="evenodd">
        <g id="Lucky" transform="translate(0.6332, 0)">
            <rect id="蒙版路径" fill="#F0FAFF" x="0" y="0" width="1024" height="1024"></rect>
            <path d="M793.826513,718.859924 C808.729219,660.896159 799.062599,598.907134 766.941224,545.974946 C728.47613,482.476447 660.104928,435.984678 581.865718,420.185527 C557.195696,415.254582 541.487438,413.745109 513.997986,413.644477 C477.546771,413.543846 450.3594,417.468476 416.929004,427.632261 C346.644617,448.865515 283.509501,499.583808 250.884657,560.969045 C233.968071,592.667979 223.999368,629.901647 223.999368,660.996791 L223.999368,670.053629 L234.874317,651.939953 C272.131083,589.649033 314.623936,548.591366 372.019496,519.307589 C438.880288,485.193499 520.140318,478.350555 581.865718,501.495808 C653.962596,528.565691 697.462389,590.755979 693.837406,661.60058 C692.125609,695.915934 678.431229,726.206026 653.861902,749.653174 C629.191881,773.100321 598.983692,785.478 565.452601,785.578632 C504.129977,785.981158 440.788133,718.054147 428,658.379647 C427.521019,656.029744 444.854353,645.029744 480,625.379647 C479.958358,635.90844 470.621988,664.917583 472.420594,691.298462 C472.924276,698.686163 474.30119,705.86775 477,712.379647 C487.967842,738.843698 525.712323,752.103395 539.977029,755.892329 C548.334628,758.106223 551.858916,758.508749 564.848438,758.508749 C578.039347,758.508749 581.16086,758.206854 589.921235,755.892329 C629.191881,745.326018 657.889661,714.432136 665.542402,674.380785 C667.354893,665.122684 667.556281,646.002692 665.945178,634.832592 C662.420889,609.574077 649.532062,584.013667 630.400208,564.189254 C603.917696,536.817477 567.265093,520.01201 524.168076,515.584223 C509.970227,514.07475 479.157874,514.980433 465.262107,517.194327 C404.241565,526.854955 350.672376,555.031784 307.071889,600.315975 C278.776885,629.700384 256.926295,663.110053 230.544476,717.451082 C223.79798,731.338234 217.655649,744.118439 216.850097,745.829175 C216.044545,747.640543 215.1383,749.150016 214.836218,749.150016 C213.426502,749.150016 204.565433,727.11171 202.148778,717.95424 C198.322408,702.758878 196.509916,682.230045 197.11408,660.594265 C197.516856,650.329848 197.919632,641.071747 198.12102,639.9648 C198.423101,638.857853 198.926571,635.436381 199.329347,632.417435 C206.277231,579.183353 233.665989,525.446113 275.35329,483.482763 C326.002354,432.361943 388.331918,401.166167 460.932267,390.398593 C477.546771,387.983436 488.220331,387.379647 513.997986,387.379647 C542.393684,387.379647 554.074184,388.184699 573.407425,391.50554 C622.646773,399.958589 662.521583,415.355213 700.885984,440.71436 C718.708815,452.588882 729.885845,461.545088 744.889246,476.337924 C772.882168,503.810333 791.20847,529.873901 806.21187,563.484833 C816.281267,586.126929 823.833314,614.605653 826.249969,639.260379 C827.760379,654.153847 826.854133,688.871726 824.73956,702.557615 C812.253508,781.855265 763.517629,847.165131 690.111729,882.989958 C653.157044,901.003003 612.476683,909.254788 567.365787,907.845947 C523.161136,906.437105 476.841913,895.367637 424.380357,873.731857 C416.32484,870.411016 789.395978,736.067916 793.826513,718.859924 Z M398.5,863.879647 C400.166667,770.879647 417,703.379647 449,661.379647 C450.329372,659.634845 449.522322,759.679712 550,783.379647 C557.877052,785.237628 571.118262,784.047664 589,780.379647 C613.363496,775.382049 645.620637,762.61348 678,717.379647 C684.325468,708.542995 717.897271,629.602726 658,563.379647 C647.467571,551.734878 551.307667,494.329068 430,515.379647 C414.980905,517.985918 362.105719,529.127401 299,588.379647 C279.571238,606.622016 249.904571,646.622016 210,708.379647 L199,629.379647 C217.412222,569.593874 240.078889,524.927208 267,495.379647 C293.921111,465.832086 339.587778,435.498752 404,404.379647 C489.21379,390.575216 557.547124,390.575216 609,404.379647 C660.452876,418.184077 715.119543,451.184077 773,503.379647 C806.692381,572.250116 824.692381,619.583449 827,645.379647 C832.968496,712.09973 795.327123,753.184851 800,757.379647 C814.056082,769.997654 764.897114,835.930597 703,873.379647 C673.37995,891.300397 602.475375,901.150274 449,881.379647 C443.698216,880.696673 426.864882,874.86334 398.5,863.879647 Z" id="形状下" fill="url(#linearGradient-1)" fill-rule="nonzero" transform="translate(512.3217, 647.6898) scale(-1, 1) rotate(-180) translate(-512.3217, -647.6898)"></path>
            <g id="形状上" transform="translate(518.3396, 390.4578) scale(-1, 1) rotate(-261) translate(-518.3396, -390.4578)translate(242.2716, 104.3236)" fill-rule="nonzero">
                <path d="M244.021823,562.561397 C219.952261,559.610078 199.911077,555.288503 182.085502,549.385864 C115.315127,527.040159 61.9391104,481.400111 33.7404602,422.479125 C21.9574528,397.709122 14.8070808,373.255332 10.7787022,343.004308 C8.86522239,329.196348 9.16735079,293.358897 11.2822495,277.232044 C19.8425541,211.459781 49.0640228,145.390323 101.030107,90.6855078 C130.739399,59.3804403 164.763474,34.8022287 193.465672,21.3104824 C206.356483,15.3024391 223.376383,8.45116174 223.980639,9.18899162 C224.182058,9.29439589 220.858646,14.6700135 216.729558,20.9942696 C190.645807,60.7316785 181.078407,78.228787 172.215975,101.628534 C160.332258,132.933602 155.397494,155.700924 152.779048,190.695141 C151.771953,205.030121 152.074082,230.854167 153.484014,240.762168 C154.374858,246.997408 155.808822,266.000735 159.763064,283.710788 C162.961227,298.034552 168.660113,311.775241 170.371319,315.168673 C175.910339,326.130716 179.265637,330.250391 187.423104,340.580009 C207.867125,366.087842 243.820404,389.171377 283.298514,402.136102 C322.273077,414.784614 367.290208,419.63321 414.724366,416.154869 C425.633088,415.372235 462.613938,415.183649 495.829541,404.306946 C507.485106,400.490243 523.085667,391.486524 542.631223,377.29579 C535.893965,396.89086 530.792962,409.919963 527.328215,416.383102 C513.99743,441.250347 494.075836,464.488525 483.206802,475.813685 C436.175482,524.932074 373.634904,554.866886 303.037569,562.245184 C293.47017,563.193823 251.071486,563.510036 244.021823,562.561397 Z" id="路径" fill="url(#linearGradient-2)" transform="translate(276.068, 286.1342) scale(-1, 1) rotate(-182) translate(-276.068, -286.1342)"></path>
                <path d="M311.2616,483.393834 C370.075928,474.856088 421.135626,449.980681 460.613737,410.664889 C471.993906,399.386633 483.575495,386.000291 482.870528,385.157057 C482.5684,384.946248 478.942859,385.367865 474.914481,386.211099 C446.413702,392.324547 421.135626,394.748845 385.887314,394.748845 C357.789373,394.748845 343.790757,393.905611 327.979371,391.059696 C324.958087,390.532674 319.318357,389.584036 315.390688,388.846206 C287.393457,384.103014 252.346563,371.66531 227.370616,357.646543 C183.461289,333.087348 154.356254,300.095813 140.357638,258.77734 C129.984563,228.631719 126.056894,201.648226 126.157604,161.805413 C126.157604,131.027367 128.876759,107.311407 135.221455,82.2251911 C139.149125,66.836168 145.69524,45.2282932 147.910848,40.8013139 C149.018652,38.48242 149.723618,36.4797389 149.42149,36.2689304 C148.817233,35.6365048 133.408685,50.6039108 122.431353,62.6199973 C80.334797,108.576258 51.4311806,163.175669 41.4609436,215.56159 C37.2311461,237.591082 36.6268893,245.70721 37.2311461,268.263724 C37.7346934,285.971641 38.3389502,291.768875 40.8566868,304.7336 C47.402802,337.725136 57.0709106,361.335692 75.1986143,388.108376 C83.0539526,399.702846 100.678109,419.202635 111.85686,428.689019 C149.119362,459.994087 195.546425,479.177663 248.418894,484.869494 C260.50403,486.134345 298.16937,485.291111 311.2616,483.393834 Z" id="路径" fill="url(#linearGradient-3)" transform="translate(259.9669, 260.8602) scale(-1, 1) rotate(-182) translate(-259.9669, -260.8602)"></path>
            </g>
        </g>
    </g>
</svg>

<svg xmlns="http://www.w3.org/2000/svg" width="1025" height="1024"><defs><linearGradient id="a" x1="107.949%" x2="-12.539%" y1="76.974%" y2="31.05%"><stop offset="0%" stop-color="#F932AF"/><stop offset="0%" stop-color="#FA5991"/><stop offset="45.763%" stop-color="#FA5A8F"/><stop offset="100%" stop-color="#FE8241"/><stop offset="100%" stop-color="#FE8241"/></linearGradient><linearGradient id="b" x1="18.946%" x2="86.699%" y1="-4.62%" y2="185.427%"><stop offset="0%" stop-color="#085EA5"/><stop offset="19.007%" stop-color="#1669AB"/><stop offset="48.885%" stop-color="#A5E7E5"/><stop offset="100%" stop-color="#A5E7E5"/></linearGradient><linearGradient id="c" x1="16.965%" x2="89.04%" y1="-4.62%" y2="185.427%"><stop offset="0%" stop-color="#085EA5"/><stop offset="19.007%" stop-color="#1669AB"/><stop offset="48.885%" stop-color="#A5E7E5"/><stop offset="100%" stop-color="#A5E7E5"/></linearGradient></defs><g fill="none" fill-rule="evenodd"><path fill="#F0FAFF" d="M.633 0h1024v1024H.633z"/><path fill="url(#a)" fill-rule="nonzero" d="M793.827 718.86c14.902-57.964 5.236-119.953-26.886-172.885-38.465-63.499-106.836-109.99-185.075-125.79-24.67-4.93-40.379-6.44-67.868-6.54-36.451-.101-63.639 3.823-97.069 13.987-70.284 21.234-133.42 71.952-166.044 133.337-16.917 31.699-26.886 68.933-26.886 100.028v9.057l10.875-18.114c37.257-62.291 79.75-103.349 137.145-132.632 66.861-34.115 148.121-40.957 209.847-17.812 72.097 27.07 115.596 89.26 111.971 160.105-1.711 34.315-15.406 64.605-39.975 88.052-24.67 23.447-54.878 35.825-88.41 35.926-61.322.402-124.664-67.525-137.452-127.2-.479-2.35 16.854-13.35 52-33-.042 10.53-9.378 39.539-7.58 65.92.504 7.387 1.881 14.569 4.58 21.08 10.968 26.465 48.712 39.724 62.977 43.513 8.358 2.214 11.882 2.617 24.871 2.617 13.191 0 16.313-.302 25.073-2.617 39.27-10.566 67.969-41.46 75.621-81.511 1.813-9.258 2.014-28.378.403-39.548-3.524-25.259-16.413-50.82-35.545-70.644-26.482-27.372-63.135-44.177-106.232-48.605-14.198-1.51-45.01-.604-58.906 1.61-61.02 9.661-114.59 37.838-158.19 83.122-28.295 29.384-50.146 62.794-76.528 117.135-6.746 13.887-12.888 26.667-13.694 28.378-.805 1.812-1.712 3.321-2.014 3.321-1.41 0-10.27-22.038-12.687-31.196-3.827-15.195-5.64-35.724-5.035-57.36.403-10.264.806-19.522 1.007-20.63.302-1.106.806-4.528 1.208-7.547 6.948-53.234 34.337-106.97 76.024-148.934 50.65-51.121 112.979-82.317 185.58-93.084 16.614-2.416 27.287-3.02 53.065-3.02 28.396 0 40.076.806 59.41 4.127 49.239 8.453 89.114 23.85 127.478 49.208 17.823 11.875 29 20.831 44.003 35.624 27.993 27.472 46.32 53.536 61.323 87.147 10.07 22.642 17.621 51.12 20.038 75.775 1.51 14.894.604 49.612-1.51 63.298-12.486 79.297-61.222 144.607-134.628 180.432-36.955 18.013-77.635 26.265-122.746 24.856-44.205-1.409-90.524-12.478-142.986-34.114-8.055-3.321 365.016-137.664 369.447-154.872M398.5 863.88c1.667-93 18.5-160.5 50.5-202.5 1.33-1.745.522 98.3 101 122 7.877 1.858 21.118.668 39-3 24.363-4.998 56.62-17.767 89-63 6.325-8.837 39.897-87.777-20-154-10.532-11.645-106.692-69.05-228-48-15.02 2.606-67.894 13.747-131 73-19.429 18.242-49.095 58.242-89 120l-11-79c18.412-59.786 41.079-104.453 68-134 26.921-29.548 72.588-59.881 137-91 85.214-13.805 153.547-13.805 205 0 51.453 13.804 106.12 46.804 164 99 33.692 68.87 51.692 116.203 54 142 5.968 66.72-31.673 107.805-27 112 14.056 12.618-35.103 78.55-97 116-29.62 17.92-100.525 27.77-254 8-5.302-.683-22.135-6.517-50.5-17.5" transform="matrix(1 0 0 -1 .633 1295.38)"/><g fill-rule="nonzero"><path fill="url(#b)" d="M244.022 562.561c-24.07-2.95-44.11-7.272-61.936-13.175C115.316 527.04 61.939 481.4 33.74 422.479c-11.783-24.77-18.933-49.224-22.961-79.475-1.914-13.808-1.612-49.645.503-65.772 8.56-65.772 37.782-131.842 89.748-186.546 29.71-31.306 63.733-55.884 92.436-69.376 12.89-6.008 29.91-12.859 30.515-12.121.201.105-3.122 5.481-7.251 11.805-26.084 39.738-35.652 57.235-44.514 80.635-11.884 31.305-16.819 54.072-19.437 89.066-1.007 14.335-.705 40.16.705 50.067.89 6.235 2.325 25.239 6.28 42.949 3.197 14.324 8.896 28.064 10.607 31.458 5.54 10.962 8.895 15.081 17.052 25.411 20.444 25.508 56.397 48.591 95.876 61.556 38.974 12.649 83.991 17.497 131.425 14.019 10.91-.783 47.89-.971 81.106-11.848 11.655-3.817 27.256-12.82 46.801-27.011-6.737 19.595-11.838 32.624-15.303 39.087-13.33 24.867-33.252 48.106-44.121 59.43-47.032 49.12-109.572 79.054-180.17 86.432-9.567.949-51.966 1.265-59.015.316" transform="rotate(79 334.243 485.63)"/><path fill="url(#c)" d="M311.262 483.394c58.814-8.538 109.874-33.413 149.352-72.73 11.38-11.277 22.961-24.664 22.257-25.507-.303-.21-3.928.21-7.957 1.054-28.5 6.114-53.778 8.538-89.027 8.538-28.098 0-42.096-.843-57.908-3.69-3.02-.526-8.66-1.475-12.588-2.213-27.998-4.743-63.044-17.18-88.02-31.2-43.91-24.559-73.015-57.55-87.013-98.869-10.373-30.145-14.301-57.129-14.2-96.972 0-30.778 2.719-54.494 9.063-79.58 3.928-15.389 10.474-36.997 12.69-41.424 1.108-2.319 1.813-4.321 1.51-4.532-.604-.632-16.012 14.335-26.99 26.351-42.096 45.956-71 100.556-80.97 152.942-4.23 22.03-4.834 30.145-4.23 52.702.504 17.708 1.108 23.505 3.626 36.47 6.546 32.991 16.214 56.602 34.342 83.374 7.855 11.595 25.48 31.095 36.658 40.581 37.262 31.305 83.69 50.489 136.562 56.18 12.085 1.265 49.75.422 62.843-1.475" transform="rotate(79 304.37 460.115)"/></g></g></svg>
